X: 2
T: Counselor's
M: 6/8
L: 1/8
R: jig
K: A Major
|: E |\ 
Ace dBd | cAc efg | aec dBd | cAc BGE |
Ace dBd | cAc efg | aec dBd | cAG A2 :|
|: g |\ 
aba gfg | aec Ace | aba gfg | efg a2 b |
c'ac' bgb | agf ecA | Ace dcB | cAA A2 :|
